fs/slide_layout_24_filled.svg

<svg viewBox="0 0 24 24" fill="none" xmlns="http://www.w3.org/2000/svg" height="1em" width="1em">
  <path d="M6.5 8.75C6.5 8.61193 6.61193 8.5 6.75 8.5H17.25C17.3881 8.5 17.5 8.61193 17.5 8.75V10.5H6.5V8.75ZM6.5 12V15.25C6.5 15.3881 6.61193 15.5 6.75 15.5H9V12H6.5ZM17.25 15.5H10.5V12H17.5V15.25C17.5 15.3881 17.3881 15.5 17.25 15.5ZM2 6.75C2 5.23122 3.23122 4 4.75 4H19.25C20.7688 4 22 5.23122 22 6.75V17.25C22 18.7688 20.7688 20 19.25 20H4.75C3.23122 20 2 18.7688 2 17.25V6.75ZM6.75 7C5.7835 7 5 7.7835 5 8.75V15.25C5 16.2165 5.7835 17 6.75 17H17.25C18.2165 17 19 16.2165 19 15.25V8.75C19 7.7835 18.2165 7 17.25 7H6.75Z" fill="#212121"/>
</svg>

<svg viewBox="0 0 24 24" fill="none" xmlns="http://www.w3.org/2000/svg" height="1em" width="1em">
  <path d="M6.5 8.75a.25.25 0 0 1 .25-.25h10.5a.25.25 0 0 1 .25.25v1.75h-11V8.75Zm0 3.25v3.25c0 .138.112.25.25.25H9V12H6.5Zm10.75 3.5H10.5V12h7v3.25a.25.25 0 0 1-.25.25ZM2 6.75A2.75 2.75 0 0 1 4.75 4h14.5A2.75 2.75 0 0 1 22 6.75v10.5A2.75 2.75 0 0 1 19.25 20H4.75A2.75 2.75 0 0 1 2 17.25V6.75ZM6.75 7A1.75 1.75 0 0 0 5 8.75v6.5c0 .966.784 1.75 1.75 1.75h10.5A1.75 1.75 0 0 0 19 15.25v-6.5A1.75 1.75 0 0 0 17.25 7H6.75Z" fill="#212121"/>
</svg>
